X: 1
T: Statia Donnelly
R: jig
M: 6/8
L: 1/8
K: Dmix
|:FGA cAA|BGG cAG|FGA cAG|Ad^c d2 A|
|FGA cAA|def g2 e|dcA GEA|1 DED D2 A:|2 DED DFA||
|:ded cAA|def g2 e|ded cAB|~c3 ABc|
|ded cAA|def g2 e|dcA GEA|1 DED DFA:|2 DED D2 A||


Tune 1471	Setting 14865

